X: 30116
T: Old Blackthorn, The
R: reel
M: 4/4
K: Dmajor
|:d2 FB AFEF|D2 dc BABc|dF F2 AF F2|AFEF D2 fe|
d2 FB AFEF|D2 dc BABc|dF F2 AF F2|AFEF D4:|
|:defd (3efg ec|A2 cA EAcA|defg e2 fg|abag fgfe|
defd (3efg ec|A2 cA eAcA|defg e2 fg|abag fgfe:|

